X:1
T:Title
%%score { ( 1 3 ) | ( 2 4 ) }
L:1/8
Q:1/4=100
M:6/4
K:Db
V:1 treble nm="Grand Piano"
V:3 treble 
V:2 bass 
V:4 bass 
V:1
 [FA]2 [_F=G]2 [_GB]2 [=FA]4 DE | F2 _F2 G2 .=F6 | [EG]2 [=DF]2 [CEG]2 [EGc]2 [_DGB]2 [CGA]2 | %3
w: J.~E.~Delmarter * * * * *|||
 [DFA]2 [Fd]2 [_FB]2 .[=FA]6 | [FA]2 [_F=G]2 [_GB]2 [=FA]4 DE | F2 _F2 G2 =F4 [Fd]2 | %6
w: |||
 [Ac]2 B2 d2 B2 [DFA]2[K:bass] D-[DE] | [A,CF]2 [A,CF]3[K:bass] [G,CE] .[F,D]6 | %8
w: ||
 [DFA]2 [Fd]3 [FA] [Gd]2 .[Gc]4 | A2 e3 c e2 .d4 | [DBd]2 [DAc]2 [DGB]2 [DA]4 [DA][=DAB] | %11
w: |||
 [EAc]2 [E=Gc]3 [DEB] .[CEA]6 | [Fd]2 [Fd]3 [FA] .[Gc]6 | e2 e3 c d4 [Ad]2 | %14
w: |||
 [Ac]2 B2 Bd B2 [DFA]2[K:bass] [F,D][=G,DE] | [A,DF]2 [A,CF]3[K:bass] [G,CE] .[F,D]6 |] %16
w: ||
V:2
 [D,D]2 [D,D]2 [D,D]2 [D,D]4 [D,F,][D,G,D] | [D,A,D]2 [D,=G,D]2 [D,B,D]2 .[D,A,D]6 | %2
 [A,,A,]2 [A,,A,]2 A,,2 A,2 A,2 A,2 | D,2 [D,A,]2 [D,=G,]2 .[D,A,]6 | %4
 [D,D]2 [D,D]2 [D,D]2 [D,D]4 [D,F,][D,G,D] | [D,A,D]2 [D,=G,D]2 [D,B,D]2 [D,A,D]4 [D,D]2 | %6
 [G,D]2[K:treble] [G,DG]2 [G,B,G]2 [A,DF]2[K:bass] .A,,3 =G, | A,,2 A,,3 A,, .D,6 | %8
 D,2 [D,A,]3 [D,A,] [E,A,]2 .[E,A,]4 | [A,CG]2 [A,CG]3 [A,EG] [B,DG]2 .[B,DF]4 | %10
 G,2 G,2 G,2 F,4 _F,F, | E,2 E,3 E, .A,,6 | [D,A,]2 [D,A,]3 [D,A,] .[E,A,]6 | %13
 [A,CG]2 [A,CG]3 [A,EG] [B,DF]4[K:bass] [F,D]2 | [G,D]2 [G,DG]2 [G,DG][G,B,G] [A,DF]2 A,,2 B,,B,, | %15
 A,,2 A,,3 A,, .D,6 |] %16
V:3
 x12 | x12 | x12 | x12 | x12 | x12 | z6 z4[K:bass] .F,2 | x5[K:bass] x7 | x12 | x12 | x12 | x12 | %12
 x12 | x12 | x10[K:bass] x2 | x5[K:bass] x7 |] %16
V:4
 x12 | x12 | x12 | x12 | x12 | x12 | z6[K:treble] z4[K:bass] B,,2 | x12 | x12 | x12 | x12 | x12 | %12
 x12 | x10[K:bass] x2 | x12 | x12 |] %16

